assets/Input latin uppercase/Flat/input_latin_uppercase_flat.svg

<svg width="32" height="32" viewBox="0 0 32 32" fill="none" xmlns="http://www.w3.org/2000/svg">
<path d="M2 6C2 3.79086 3.79086 2 6 2H26C28.2091 2 30 3.79086 30 6V26C30 28.2091 28.2091 30 26 30H6C3.79086 30 2 28.2091 2 26V6Z" fill="#00A6ED"/>
<path d="M11.4439 6.56294C11.2897 6.18466 10.9209 5.9382 10.5124 5.94044C10.1039 5.94269 9.73778 6.19318 9.58774 6.57313L6.77463 13.6968C6.57178 14.2105 6.82376 14.7913 7.33744 14.9942C7.85112 15.197 8.43199 14.9451 8.63484 14.4314L8.99006 13.5318C9.00891 13.4841 9.05501 13.4528 9.10633 13.4528H12.0087C12.0595 13.4528 12.1052 13.4835 12.1244 13.5306L12.4958 14.4416C12.7042 14.953 13.2878 15.1986 13.7993 14.9901C14.3107 14.7816 14.5563 14.198 14.3478 13.6866L11.4439 6.56294ZM11.2072 11.2806C11.2407 11.3628 11.1802 11.4528 11.0914 11.4528H9.99484C9.90665 11.4528 9.84619 11.3639 9.87858 11.2818L10.4182 9.91544C10.4596 9.81061 10.6076 9.8098 10.6502 9.91417L11.2072 11.2806Z" fill="white"/>
<path d="M24.0624 10.0682C24.0349 10.1232 24.0489 10.1904 24.0961 10.2299C24.6989 10.7343 25.0823 11.4923 25.0823 12.3398C25.0823 13.8454 23.8724 15.0684 22.3718 15.0896C22.3495 15.0911 22.327 15.0918 22.3042 15.0918H18.9471C18.6815 15.0918 18.4268 14.9861 18.2392 14.7981C18.0516 14.6101 17.9466 14.3552 17.9471 14.0896L17.9628 7.08761C17.964 6.5362 18.4114 6.08984 18.9628 6.08984H21.6013C23.1201 6.08984 24.3513 7.32106 24.3513 8.83984C24.3513 9.28131 24.2473 9.69847 24.0624 10.0682ZM20.0775 11.5898C20.0085 11.5898 19.9526 11.6456 19.9525 11.7146L19.9497 12.9665C19.9495 13.0357 20.0055 13.0918 20.0747 13.0918H22.269C22.2899 13.0905 22.311 13.0898 22.3323 13.0898C22.7465 13.0898 23.0823 12.7541 23.0823 12.3398C23.0823 11.9256 22.7465 11.5898 22.3323 11.5898H20.0775ZM21.6019 9.58984C22.0159 9.58952 22.3513 9.25386 22.3513 8.83984C22.3513 8.42563 22.0155 8.08984 21.6013 8.08984H20.0853C20.0163 8.08984 19.9604 8.14564 19.9603 8.21456L19.9575 9.46456C19.9573 9.53371 20.0133 9.58984 20.0825 9.58984H21.6019Z" fill="white"/>
<path d="M7 20.2386C7 18.4437 8.45508 16.9886 10.25 16.9886H10.6391C11.7532 16.9886 12.7896 17.5593 13.3854 18.5007L13.4695 18.6336C13.7648 19.1003 13.6259 19.718 13.1592 20.0134C12.6925 20.3087 12.0748 20.1698 11.7794 19.7031L11.6953 19.5702C11.4662 19.2081 11.0676 18.9886 10.6391 18.9886H10.25C9.55964 18.9886 9 19.5483 9 20.2386V22.75C9 23.4403 9.55964 24 10.25 24H10.4907C10.9632 24 11.3953 23.7336 11.6075 23.3114L11.731 23.0658C11.9791 22.5724 12.5802 22.3735 13.0736 22.6216C13.5671 22.8696 13.766 23.4707 13.5179 23.9642L13.3944 24.2098C12.8426 25.3073 11.7192 26 10.4907 26H10.25C8.45508 26 7 24.5449 7 22.75V20.2386Z" fill="white"/>
<path d="M19.067 16.9222C18.5147 16.9222 18.067 17.37 18.067 17.9222V25C18.067 25.5523 18.5147 26 19.067 26H20.7748C23.2815 26 25.3137 23.9679 25.3137 21.4611C25.3137 18.9544 23.2815 16.9222 20.7748 16.9222H19.067ZM20.192 24C20.123 24 20.067 23.944 20.067 23.875V19.0472C20.067 18.9782 20.123 18.9222 20.192 18.9222H20.7748C22.177 18.9222 23.3137 20.0589 23.3137 21.4611C23.3137 22.8633 22.177 24 20.7748 24H20.192Z" fill="white"/>
</svg>

<svg xmlns="http://www.w3.org/2000/svg" width="32" height="32" fill="none"><path fill="#00A6ED" d="M2 6a4 4 0 0 1 4-4h20a4 4 0 0 1 4 4v20a4 4 0 0 1-4 4H6a4 4 0 0 1-4-4V6Z"/><path fill="#fff" d="M11.444 6.563a1 1 0 0 0-1.856.01l-2.813 7.124a1 1 0 0 0 1.86.734l.355-.9a.125.125 0 0 1 .116-.078h2.903c.05 0 .096.03.115.078l.372.91a1 1 0 1 0 1.852-.754l-2.904-7.124Zm-.237 4.718a.125.125 0 0 1-.116.172H9.995a.125.125 0 0 1-.116-.171l.54-1.367a.125.125 0 0 1 .231 0l.557 1.366ZM24.062 10.068a.134.134 0 0 0 .034.162 2.75 2.75 0 0 1-1.792 4.862h-3.357a1 1 0 0 1-1-1.002l.016-7.002a1 1 0 0 1 1-.998H21.6a2.75 2.75 0 0 1 2.461 3.978Zm-3.985 1.522a.125.125 0 0 0-.125.125l-.002 1.252c0 .069.056.125.125.125h2.194a1.02 1.02 0 0 1 .063-.002.75.75 0 1 0 0-1.5h-2.255Zm1.525-2a.75.75 0 0 0 0-1.5h-1.517a.125.125 0 0 0-.125.125l-.003 1.25c0 .069.056.125.125.125h1.52ZM7 20.239a3.25 3.25 0 0 1 3.25-3.25h.39c1.113 0 2.15.57 2.745 1.512l.085.133a1 1 0 0 1-1.69 1.07l-.085-.134a1.25 1.25 0 0 0-1.056-.581h-.389c-.69 0-1.25.56-1.25 1.25v2.511c0 .69.56 1.25 1.25 1.25h.24a1.25 1.25 0 0 0 1.117-.689l.124-.245a1 1 0 0 1 1.787.898l-.124.246A3.25 3.25 0 0 1 10.491 26h-.241A3.25 3.25 0 0 1 7 22.75v-2.511ZM19.067 16.922a1 1 0 0 0-1 1V25a1 1 0 0 0 1 1h1.708a4.539 4.539 0 0 0 0-9.078h-1.708ZM20.192 24a.125.125 0 0 1-.125-.125v-4.828c0-.069.056-.125.125-.125h.583a2.539 2.539 0 1 1 0 5.078h-.583Z"/></svg>
